libs/ui/packages/crypto-icons/src/svg/R.svg

<svg width="24" height="24" viewBox="0 0 24 24" fill="none">
<path d="M7.125 18.4785L9.72525 17.1195V8.05875L13.4393 10.1423L10.6537 11.592V14.5823L16.875 18.75V15.9412L13.068 13.314L16.2247 11.6827V8.78325L9.72525 5.25L7.125 6.609V18.4785Z" fill="#771A4E"/>
</svg>

<svg width="24" height="24" viewBox="0 0 24 24" fill="none"><path fill="#771a4e" d="m7.125 18.479 2.6-1.36V8.06l3.714 2.083-2.785 1.45v2.99l6.221 4.168v-2.809l-3.807-2.627 3.157-1.631v-2.9l-6.5-3.533-2.6 1.359z"/></svg>
